; generated by Slic3r 1.2.9 on 2017-04-10 at 17:40:12

; external perimeters extrusion width = 0.40mm
; perimeters extrusion width = 0.67mm
; infill extrusion width = 0.67mm
; solid infill extrusion width = 0.67mm
; top infill extrusion width = 0.67mm

M107
M104 S205 ; set temperature
G28 ; home all axes
G1 Z5 F5000 ; lift nozzle
$X
M109 S205 ; wait for temperature to be reached
G21 ; set units to millimeters
G90 ; use absolute coordinates
G1 Z0.300 F7800.000
G1 -2.00000 F2400.00000
G1 X2.589 Y1.673 F7800.000
G1 2.00000 F2400.00000
G1 X2.858 Y1.256 F1800.000
G1 X3.003 Y1.079
G1 X3.955 Y0.129
G1 X4.100 Y0.012
G1 X5.004 Y-0.602
G1 X5.173 Y-0.698
G1 X6.120 Y-1.136
G1 X6.418 Y-1.246
G1 X7.554 Y-1.552
G1 X7.867 Y-1.607
G1 X8.983 Y-1.704
G1 X13.121 Y-1.709
G1 X15.983 Y-1.654 F1800.000
G1 X17.508 Y-1.410
G1 X18.972 Y-0.812
G1 X19.725 Y-0.328
G1 X21.441 Y0.950
G1 X23.002 Y2.609
G1 X23.982 Y5.109
G1 X24.215 Y6.496
G1 X24.297 Y7.898
G1 X23.925 Y15.499
G1 X23.876 Y16.050
G1 X23.798 Y16.574
G1 X23.521 Y17.617
G1 X23.135 Y18.523
G1 X21.670 Y21.221
G1 X21.313 Y21.803
G1 X19.608 Y24.280
G1 X18.009 Y25.903
G1 X15.950 Y26.878
G1 X14.143 Y27.110
G1 X12.905 Y27.083
G1 X12.253 Y27.037
G1 X11.418 Y26.934
G1 X10.599 Y26.767
G1 X9.646 Y26.464
G1 X7.914 Y25.760
G1 X7.394 Y25.522
G1 X6.964 Y25.287
G1 X6.537 Y25.021
G1 X5.654 Y24.398
G1 X5.038 Y23.889
G1 X4.587 Y23.452
G1 X4.063 Y22.849
G1 X3.627 Y22.279
G1 X3.279 Y21.777
G1 X2.255 Y20.008
G1 X1.697 Y18.722
G1 X1.618 Y18.450
G1 X1.457 Y17.673
G1 X1.323 Y16.750
G1 X1.259 Y16.024
G1 X1.099 Y6.864
G1 X1.121 Y6.201
G1 X1.173 Y5.568
G1 X1.234 Y5.099
G1 X1.423 Y4.179
G1 X1.515 Y3.850
G1 X1.960 Y2.700
G1 X2.078 Y2.464
G1 X2.557 Y1.723
G1 0.00000 F2400.00000
G1 X11.000 Y18.798 F7800.000
G1 2.00000 F2400.00000
G1 X11.203 Y19.042 F1800.000
G1 X11.325 Y19.313
G1 X11.500 Y19.535
G1 X11.335 Y19.735
G1 X10.876 Y19.448
G1 X10.745 Y19.325
G1 X10.974 Y18.852
G1 X11.097 Y19.100 F7800.000
G1 X11.665 Y19.807 F7800.000
G1 X12.041 Y20.041 F1800.000
G1 X12.319 Y20.175
G1 X12.737 Y20.310
G1 X13.225 Y20.426
G1 X10.511 Y19.078 F7800.000
G1 X10.196 Y18.555 F1800.000
G1 X10.061 Y18.231
G1 X9.979 Y17.892
G1 X9.946 Y17.523
G1 X9.968 Y17.138
G1 X10.048 Y16.744
G1 X10.187 Y16.349
G1 X10.362 Y16.002
G1 X10.580 Y15.674
G1 X10.954 Y15.253
G1 X11.474 Y14.818
G1 X11.838 Y14.608
G1 X12.112 Y14.541
G1 X12.209 Y14.372
G1 X12.265 Y14.333
G1 X12.938 Y14.034
G1 X13.708 Y13.627
G1 X13.873 Y13.838
G1 X13.660 Y14.078
G1 X13.359 Y14.356
G1 X12.919 Y14.683
G1 X12.686 Y14.894
G1 X11.664 Y15.951
G1 X11.315 Y16.364
G1 X11.134 Y16.649
G1 X11.051 Y16.834
G1 X11.005 Y17.030
G1 X10.905 Y17.147
G1 X10.835 Y17.418
G1 X10.804 Y17.995
G1 X10.527 Y19.020
G1 X10.403 Y18.693 F7800.000
G1 0.00000 F2400.00000
G1 X14.033 Y13.556 F7800.000
G1 2.00000 F2400.00000
G1 X14.395 Y13.172 F1800.000
G1 X14.635 Y12.759
G1 X14.673 Y12.615
G1 X14.694 Y12.428
G1 X14.696 Y12.217
G1 X14.666 Y11.888
G1 0.00000 F2400.00000
G1 X12.838 Y14.389 F7800.000
G1 2.00000 F2400.00000
G1 X12.465 Y14.625 F1800.000
G1 X12.300 Y14.828
G1 X11.983 Y15.010
G1 X11.984 Y15.012 F7800.000
G1 X11.732 Y15.209 F1800.000
G1 X11.306 Y15.606
G1 X10.905 Y16.082
G1 X10.695 Y16.431
G1 X10.504 Y16.886
G1 X10.421 Y17.197
G1 X10.380 Y17.460
G1 X10.387 Y17.461 F7800.000
G1 X10.398 Y18.344 F1800.000
G1 0.00000 F2400.00000
G1 X9.064 Y15.611 F7800.000
G1 2.00000 F2400.00000
G1 X8.825 Y15.229 F1800.000
G1 X8.880 Y15.117
G1 X9.085 Y14.812
G1 X9.440 Y14.427
G1 X9.777 Y14.154
G1 X10.161 Y13.899
G1 X10.551 Y13.693
G1 X10.650 Y13.657
G1 X11.017 Y13.825
G1 X11.067 Y13.467
G1 X12.011 Y13.146
G1 X12.145 Y13.357
G1 X11.922 Y13.592
G1 X11.086 Y14.103
G1 X10.637 Y14.451
G1 X10.248 Y14.822
G1 X9.910 Y15.220
G1 X9.684 Y15.546
G1 X9.497 Y15.884
G1 X9.320 Y16.325
G1 X9.198 Y16.792
G1 X9.134 Y17.258
G1 X9.127 Y17.749
G1 X8.868 Y17.798
G1 X8.685 Y17.343
G1 X8.634 Y17.159
G1 X8.590 Y16.843
G1 X8.576 Y16.494
G1 X8.662 Y15.677
G1 X9.005 Y15.621
G1 X9.428 Y15.445 F7800.000
G1 X12.088 Y13.095 F7800.000
G1 X12.530 Y13.033 F1800.000
G1 X12.603 Y13.308
G1 X12.365 Y13.403
G1 X12.128 Y13.139
G1 X12.481 Y13.169 F7800.000
G1 X12.851 Y13.073 F7800.000
G1 X13.541 Y12.704 F1800.000
G1 X13.765 Y12.549
G1 X13.882 Y12.440
G1 X13.990 Y12.290
G1 X14.106 Y12.069
G1 X14.163 Y11.829
G1 X14.155 Y11.496
G1 0.00000 F2400.00000
G1 X8.850 Y18.348 F7800.000
G1 2.00000 F2400.00000
G1 X9.094 Y18.282 F1800.000
G1 X9.287 Y18.274
G1 X9.382 Y18.535
G1 X9.382 Y18.629
G1 X9.420 Y18.745
G1 X9.516 Y18.965
G1 X9.590 Y19.019
G1 X9.711 Y19.048
G1 X9.903 Y19.259
G1 0.00000 F2400.00000
G1 X9.242 Y15.390 F7800.000
G1 2.00000 F2400.00000
G1 X9.561 Y14.941 F1800.000
G1 X9.944 Y14.546
G1 X10.349 Y14.216
G1 X10.711 Y13.979
G1 0.00000 F2400.00000
G1 X12.738 Y12.120 F7800.000
G1 2.00000 F2400.00000
G1 X11.270 Y12.582 F1800.000
G1 X10.490 Y12.864
G1 X9.969 Y13.097
G1 X9.357 Y13.456
G1 X9.104 Y13.641
G1 X8.749 Y13.950
G1 X8.506 Y14.240
G1 X8.275 Y14.115
G1 X8.328 Y13.940
G1 X8.487 Y13.575
G1 X8.668 Y13.276
G1 X8.789 Y13.121
G1 X8.920 Y12.989
G1 X9.240 Y12.741
G1 X9.584 Y12.529
G1 X9.903 Y12.380
G1 X9.980 Y12.357
G1 X10.385 Y12.472
G1 X10.429 Y12.186
G1 X10.545 Y12.149
G1 X11.070 Y12.038
G1 X12.675 Y11.832
G1 X12.725 Y12.061
G1 X12.350 Y12.021 F7800.000
G1 0.00000 F2400.00000
G1 X8.270 Y14.454 F7800.000
G1 2.00000 F2400.00000
G1 X8.151 Y14.815 F1800.000
G1 X8.030 Y15.321
G1 X7.966 Y15.797
G1 X7.962 Y16.088
G1 0.00000 F2400.00000
G1 X13.659 Y15.864 F7800.000
G1 2.00000 F2400.00000
G1 X13.742 Y16.353 F1800.000
G1 X13.522 Y16.457
G1 X13.306 Y16.209
G1 X13.616 Y15.906
G1 X14.647 Y16.558 F7800.000
G1 X14.900 Y16.586 F1800.000
G1 X15.058 Y16.555
G1 X15.278 Y16.446
G1 X15.435 Y16.315
G1 X15.679 Y15.984
G1 X15.780 Y15.767
G1 X16.031 Y15.822
G1 X16.033 Y16.017
G1 X15.978 Y16.436
G1 X15.908 Y16.790
G1 X15.752 Y17.374
G1 X15.393 Y17.412
G1 X15.031 Y17.515
G1 X14.757 Y17.545
G1 X14.353 Y17.537
G1 X14.120 Y17.505
G1 X13.927 Y17.456
G1 X13.782 Y17.383
G1 X13.507 Y17.180
G1 X13.145 Y16.840
G1 X12.834 Y16.482
G1 X12.637 Y16.192
G1 X12.709 Y16.077
G1 X12.894 Y15.863
G1 X13.365 Y15.402
G1 X13.825 Y15.026
G1 X14.325 Y15.182
G1 X14.222 Y15.572
G1 X14.204 Y15.873
G1 X14.242 Y16.098
G1 X14.314 Y16.268
G1 X14.423 Y16.413
G1 X14.597 Y16.526
G1 X14.712 Y16.804 F7800.000
G1 0.00000 F2400.00000
G1 X16.535 Y14.780 F7800.000
G1 2.00000 F2400.00000
G1 X17.082 Y14.709 F1800.000
G1 X17.096 Y15.164
G1 X17.072 Y15.345
G1 X16.953 Y15.654
G1 X16.611 Y15.201
G1 X16.358 Y15.002
G1 X15.711 Y14.659
G1 X15.456 Y14.566
G1 X15.208 Y14.541
G1 X14.988 Y14.572
G1 X14.785 Y14.653
G1 X14.606 Y14.781
G1 X14.414 Y14.998
G1 X14.202 Y14.911
G1 X14.212 Y14.732
G1 X14.273 Y14.639
G1 X14.851 Y13.926
G1 X15.147 Y13.475
G1 X15.268 Y13.176
G1 X15.345 Y12.820
G1 X15.352 Y12.705
G1 X15.576 Y12.646
G1 X15.965 Y13.252
G1 X16.125 Y13.612
G1 X16.515 Y14.723
G1 X16.614 Y15.172 F7800.000
G1 0.00000 F2400.00000
G1 X16.436 Y12.442 F7800.000
G1 2.00000 F2400.00000
G1 X16.907 Y12.753 F1800.000
G1 X17.000 Y12.888
G1 X17.061 Y13.024
G1 X17.081 Y13.192
G1 X17.185 Y13.460
G1 X17.097 Y13.727
G1 X17.094 Y14.405
G1 0.00000 F2400.00000
G1 X15.611 Y16.864 F7800.000
G1 2.00000 F2400.00000
G1 X14.941 Y17.054 F1800.000
G1 X14.530 Y17.045
G1 X14.394 Y17.016
G1 X14.130 Y16.912
G1 X13.742 Y16.649
G1 0.00000 F2400.00000
G1 X12.958 Y10.978 F7800.000
G1 2.00000 F2400.00000
G1 X12.486 Y11.068 F1800.000
G1 X11.223 Y11.188
G1 X10.794 Y11.265
G1 X10.710 Y10.993
G1 X11.113 Y10.814
G1 X11.338 Y10.743
G1 X11.663 Y10.713
G1 X12.118 Y10.576
G1 X12.323 Y10.624
G1 X12.949 Y10.704
G1 X12.956 Y10.918
G1 X12.588 Y10.827 F7800.000
G1 X10.466 Y11.220 F7800.000
G1 X9.873 Y11.504 F1800.000
G1 X9.611 Y11.662
G1 X9.389 Y11.844
G1 X9.094 Y12.046
G1 0.00000 F2400.00000
G1 X14.223 Y7.549 F7800.000
G1 2.00000 F2400.00000
G1 X13.669 Y7.832 F1800.000
G1 X13.372 Y7.909
G1 X13.125 Y7.932
G1 X12.881 Y7.916
G1 X12.589 Y7.845
G1 X12.367 Y7.740
G1 X12.189 Y7.607
G1 X12.048 Y7.459
G1 X11.924 Y7.276
G1 X11.803 Y6.968
G1 X11.764 Y6.778
G1 X11.751 Y6.531
G1 X11.809 Y6.178
G1 X11.869 Y6.008
G1 X11.990 Y5.787
G1 X12.092 Y5.653
G1 X12.249 Y5.502
G1 X12.402 Y5.396
G1 X12.632 Y5.293
G1 X12.803 Y5.245
G1 X13.070 Y5.212
G1 X13.351 Y5.236
G1 X13.644 Y5.329
G1 X14.303 Y5.640
G1 0.00000 F2400.00000
G1 X15.457 Y7.922 F7800.000
G1 2.00000 F2400.00000
G1 X15.429 Y7.409 F1800.000
G1 X15.859 Y7.720
G1 X15.775 Y7.948
G1 X15.517 Y7.927
G1 X15.654 Y7.574 F7800.000
G1 X16.119 Y7.883 F7800.000
G1 X17.738 Y7.916 F1800.000
G1 X16.671 Y6.783 F7800.000
G1 X16.944 Y6.712 F1800.000
G1 X17.190 Y6.557
G1 X17.190 Y6.520
G1 X16.949 Y6.380
G1 X16.620 Y6.300
G1 X15.450 Y6.828 F7800.000
G1 X15.459 Y6.171 F1800.000
G1 X16.210 Y6.556
G1 X15.744 Y6.802
G1 X15.682 Y6.898
G1 X15.508 Y6.845
G1 X15.686 Y6.505 F7800.000
G1 0.00000 F2400.00000
G1 X8.046 Y8.272 F7800.000
G1 2.00000 F2400.00000
G1 X8.035 Y7.831 F1800.000
G1 X8.072 Y6.529
G1 X8.133 Y6.068
G1 X8.211 Y5.777
G1 X8.365 Y5.505
G1 X8.546 Y5.350
G1 X8.771 Y5.243
G1 X9.071 Y5.197
G1 X9.302 Y5.215
G1 X9.734 Y5.360
G1 X9.927 Y5.501
G1 X10.000 Y5.583
G1 X10.117 Y5.849
G1 X10.182 Y6.183
G1 X10.214 Y6.593
G1 X10.223 Y8.266
M104 S200 ; set temperature
G1 Z0.500 F7800.000
G1 0.00000 F2400.00000
G1 X10.750 Y18.579 F7800.000
G1 2.00000 F2400.00000
G1 X11.040 Y18.523 F900.000
G1 X11.060 Y18.656
G1 X11.138 Y18.808
G1 X11.288 Y18.988
G1 X11.411 Y19.260
G1 X11.565 Y19.456
G1 X11.588 Y19.518
G1 X11.566 Y19.968
G1 X11.156 Y19.755
G1 X10.814 Y19.526
G1 X10.623 Y19.347
G1 X10.774 Y19.036
G1 X10.399 Y19.025
G1 X10.296 Y18.915
G1 X10.106 Y18.600
G1 X9.966 Y18.262
G1 X9.880 Y17.908
G1 X9.845 Y17.525
G1 X9.868 Y17.126
G1 X9.951 Y16.717
G1 X10.095 Y16.309
G1 X10.275 Y15.952
G1 X10.501 Y15.612
G1 X10.883 Y15.182
G1 X11.419 Y14.734
G1 X11.730 Y14.555
G1 X11.776 Y14.475
G1 X11.869 Y14.498
G1 X12.047 Y14.454
G1 X12.134 Y14.303
G1 X12.215 Y14.246
G1 X12.949 Y13.917
G1 X13.648 Y13.546
G1 X14.127 Y13.243
G1 X14.244 Y13.139
G1 X14.441 Y13.328
G1 X14.230 Y13.587
G1 X13.732 Y14.147
G1 X13.381 Y14.469
G1 X13.008 Y14.739
G1 X12.756 Y14.965
G1 X11.739 Y16.019
G1 X11.396 Y16.424
G1 X11.222 Y16.697
G1 X11.146 Y16.866
G1 X11.096 Y17.077
G1 X10.996 Y17.194
G1 X10.935 Y17.434
G1 X10.903 Y18.011
G1 X10.765 Y18.521
G1 X10.761 Y18.875 F7800.000
G1 0.00000 F2400.00000
G1 X14.458 Y13.067 F7800.000
G1 2.00000 F2400.00000
G1 X14.635 Y12.759 F1800.000
G1 X14.691 Y12.462
G1 X14.695 Y12.198
G1 X14.621 Y11.632
G1 0.00000 F2400.00000
G1 X11.770 Y19.899 F7800.000
G1 2.00000 F2400.00000
G1 X12.188 Y20.118 F1800.000
G1 X12.402 Y20.206
G1 X12.860 Y20.344
G1 X13.550 Y20.479
G1 0.00000 F2400.00000
G1 X10.398 Y18.348 F7800.000
G1 2.00000 F2400.00000
G1 X10.388 Y17.516 F1200.000
G1 X10.421 Y17.197
G1 X10.511 Y16.872
G1 X10.642 Y16.542
G1 X10.794 Y16.254
G1 X10.980 Y15.981
G1 X11.288 Y15.626
G1 X11.604 Y15.322
G1 X11.996 Y15.003
G1 X12.285 Y14.834
G1 X12.466 Y14.624
G1 X12.635 Y14.514
G1 X12.631 Y14.507 F7800.000
G1 X13.161 Y14.199 F1200.000
G1 X13.653 Y13.840
G1 0.00000 F2400.00000
G1 X8.900 Y15.537 F7800.000
G1 2.00000 F2400.00000
G1 X8.723 Y15.254 F900.000
G1 X8.793 Y15.067
G1 X9.005 Y14.752
G1 X9.373 Y14.353
G1 X9.751 Y14.049
G1 X10.177 Y13.774
G1 X10.646 Y13.545
G1 X10.936 Y13.683
G1 X10.976 Y13.394
G1 X12.207 Y12.977
G1 X12.617 Y12.919
G1 X12.983 Y12.794
G1 X13.438 Y12.569
G1 X13.852 Y12.298
G1 X14.021 Y12.482
G1 X13.881 Y12.663
G1 X13.682 Y12.816
G1 X13.327 Y13.036
G1 X12.650 Y13.397
G1 X12.337 Y13.521
G1 X12.236 Y13.406
G1 X11.988 Y13.668
G1 X11.143 Y14.185
G1 X10.702 Y14.526
G1 X10.321 Y14.891
G1 X9.989 Y15.281
G1 X9.770 Y15.599
G1 X9.587 Y15.927
G1 X9.415 Y16.356
G1 X9.296 Y16.812
G1 X9.233 Y17.265
G1 X9.228 Y17.697
G1 X9.263 Y18.008
G1 X9.319 Y18.221
G1 X9.074 Y18.308
G1 X8.983 Y18.194
G1 X8.768 Y17.816
G1 X8.590 Y17.375
G1 X8.536 Y17.179
G1 X8.490 Y16.852
G1 X8.476 Y16.492
G1 X8.496 Y16.181
G1 X8.573 Y15.591
G1 X8.841 Y15.546
G1 X9.203 Y15.398 F7800.000
G1 X14.062 Y12.231 F7800.000
G1 X14.163 Y11.829 F1800.000
G1 X14.156 Y11.504
G1 X14.123 Y11.348
G1 0.00000 F2400.00000
G1 X9.308 Y18.437 F7800.000
G1 2.00000 F2400.00000
G1 X9.509 Y18.949 F1800.000
G1 X9.710 Y19.044
G1 X10.140 Y19.463
G1 0.00000 F2400.00000
G1 X8.966 Y17.606 F7800.000
G1 2.00000 F2400.00000
G1 X8.899 Y17.234 F1200.000
G1 X8.898 Y16.653
G1 X8.895 Y16.652 F7800.000
G1 X8.964 Y16.227 F1200.000
G1 X9.017 Y16.019
G1 X9.316 Y15.780
G1 X9.363 Y15.683
G1 X9.356 Y15.222
G1 X9.581 Y14.917
G1 X9.961 Y14.532
G1 X10.403 Y14.176
G1 X10.680 Y14.004
G1 0.00000 F2400.00000
G1 X8.258 Y14.905 F7800.000
G1 2.00000 F2400.00000
G1 X8.012 Y14.824 F900.000
G1 X8.104 Y14.336
G1 X8.234 Y13.906
G1 X8.398 Y13.529
G1 X8.585 Y13.219
G1 X8.853 Y12.914
G1 X9.183 Y12.659
G1 X9.537 Y12.441
G1 X9.955 Y12.260
G1 X10.306 Y12.346
G1 X10.339 Y12.110
G1 X10.519 Y12.052
G1 X11.080 Y11.935
G1 X13.105 Y11.676
G1 X13.335 Y11.592
G1 X13.457 Y11.817
G1 X13.241 Y11.978
G1 X12.981 Y12.122
G1 X12.770 Y12.214
G1 X11.133 Y12.734
G1 X10.527 Y12.957
G1 X10.146 Y13.123
G1 X9.594 Y13.417
G1 X9.194 Y13.697
G1 X8.821 Y14.020
G1 X8.608 Y14.274
G1 X8.406 Y14.595
G1 X8.284 Y14.851
G1 X8.094 Y14.704 F7800.000
G1 X8.086 Y15.059 F7800.000
G1 X8.030 Y15.321 F1800.000
G1 X7.966 Y15.797
G1 X7.960 Y16.353
G1 X8.471 Y14.029 F7800.000
G1 X8.697 Y13.684 F1200.000
G1 X9.019 Y13.324
G1 X9.430 Y13.015
G1 X9.948 Y12.732
G1 X9.991 Y12.712
G1 X10.504 Y12.680
G1 X10.536 Y12.664
G1 X10.717 Y12.440
G1 X11.145 Y12.320
G1 X12.510 Y12.019
G1 0.00000 F2400.00000
G1 X13.110 Y16.201 F7800.000
G1 2.00000 F2400.00000
G1 X13.755 Y15.573 F900.000
G1 X13.862 Y16.209
G1 X13.971 Y16.465
G1 X14.253 Y16.843
G1 X14.023 Y17.073
G1 X13.759 Y16.878
G1 X13.429 Y16.567
G1 X13.149 Y16.246
G1 X15.178 Y14.143 F7800.000
G1 X15.646 Y13.432 F900.000
G1 X15.963 Y14.332
G1 X15.544 Y14.181
G1 X15.238 Y14.149
G1 X14.097 Y15.001 F7800.000
G1 X14.114 Y14.700 F900.000
G1 X14.192 Y14.580
G1 X14.770 Y13.867
G1 X15.058 Y13.429
G1 X15.172 Y13.146
G1 X15.242 Y12.823
G1 X15.291 Y12.112
G1 X15.601 Y12.512
G1 X15.874 Y12.903
G1 X16.080 Y13.257
G1 X16.228 Y13.603
G1 X16.607 Y14.677
G1 X17.189 Y14.587
G1 X17.194 Y15.204
G1 X17.160 Y15.403
G1 X17.060 Y15.561
G1 X16.882 Y15.726
G1 X16.539 Y15.272
G1 X16.303 Y15.086
G1 X15.670 Y14.750
G1 X15.433 Y14.665
G1 X15.210 Y14.642
G1 X15.014 Y14.669
G1 X14.833 Y14.742
G1 X14.673 Y14.856
G1 X14.537 Y15.009
G1 X14.407 Y15.264
G1 X14.321 Y15.588
G1 X14.304 Y15.868
G1 X14.339 Y16.070
G1 X14.401 Y16.218
G1 X14.492 Y16.339
G1 X14.682 Y16.462
G1 X14.895 Y16.485
G1 X15.174 Y16.403
G1 X15.362 Y16.246
G1 X15.592 Y15.933
G1 X15.771 Y15.554
G1 X16.036 Y15.737
G1 X16.134 Y15.849
G1 X16.138 Y15.946
G1 X16.068 Y16.498
G1 X16.005 Y16.812
G1 X15.855 Y17.378
G1 X15.817 Y17.615
G1 X15.618 Y17.489
G1 X15.412 Y17.510
G1 X15.051 Y17.613
G1 X14.762 Y17.645
G1 X14.346 Y17.637
G1 X14.101 Y17.603
G1 X13.892 Y17.550
G1 X13.729 Y17.469
G1 X13.443 Y17.257
G1 X13.073 Y16.910
G1 X12.754 Y16.543
G1 X12.581 Y16.287
G1 X12.533 Y16.168
G1 X12.595 Y16.062
G1 X12.822 Y15.794
G1 X13.329 Y15.300
G1 X13.813 Y14.918
G1 X14.040 Y14.984
G1 X14.396 Y15.041 F7800.000
G1 0.00000 F2400.00000
G1 X16.622 Y12.240 F7800.000
G1 2.00000 F2400.00000
G1 X16.825 Y12.689 F1800.000
G1 X16.951 Y12.804
G1 X17.002 Y12.886
G1 X17.059 Y13.029
G1 X17.085 Y13.189
G1 X17.129 Y13.240
G1 X17.164 Y13.536
G1 X17.099 Y13.727
G1 X17.100 Y14.399
G1 0.00000 F2400.00000
G1 X15.692 Y16.476 F7800.000
G1 2.00000 F2400.00000
G1 X15.379 Y16.938 F1200.000
G1 X14.941 Y17.054
