; generated by Slic3r 1.2.9 on 2017-04-02 at 19:37:00

; external perimeters extrusion width = 0.50mm
; perimeters extrusion width = 0.58mm
; infill extrusion width = 0.58mm
; solid infill extrusion width = 0.58mm
; top infill extrusion width = 0.58mm

M107
M104 S205 ; set temperature
G28 ; home all axes
G1 Z5 F5000 ; lift nozzle
$X
M109 S205 ; wait for temperature to be reached
G21 ; set units to millimeters
G90 ; use absolute coordinates
G1 Z0.500 F7800.000
G1 -2.00000 F2400.00000
G1 X77.112 Y68.341 F7800.000
G1 2.00000 F2400.00000
G1 X77.485 Y67.922 F1800.000
G1 X78.136 Y67.282
G1 X78.501 Y66.968
G1 X79.479 Y66.203
G1 X80.315 Y65.651
G1 X80.897 Y65.325
G1 X82.132 Y64.784
G1 X82.872 Y64.542
G1 X83.887 Y64.295
G1 X85.044 Y64.105
G1 X86.025 Y64.015
G1 X87.632 Y63.983
G1 X103.023 Y63.840
G1 X112.734 Y64.212 F1800.000
G1 X115.023 Y64.697
G1 X117.190 Y66.076
G1 X123.011 Y71.544
G1 X124.419 Y73.412
G1 X125.165 Y76.056
G1 X125.677 Y82.962
G1 X125.713 Y83.835
G1 X125.711 Y85.408
G1 X125.005 Y109.962
G1 X124.085 Y113.209
G1 X118.097 Y123.567
G1 X117.802 Y123.995
G1 X110.756 Y133.404
G1 X109.056 Y135.011
G1 X106.916 Y135.958
G1 X105.053 Y136.163
G1 X102.123 Y136.076
G1 X99.597 Y135.877
G1 X98.329 Y135.703
G1 X96.910 Y135.433
G1 X96.286 Y135.279
G1 X94.880 Y134.860
G1 X94.328 Y134.670
G1 X92.870 Y134.097
G1 X87.858 Y131.895
G1 X86.876 Y131.370
G1 X85.997 Y130.807
G1 X85.390 Y130.369
G1 X83.951 Y129.209
G1 X83.444 Y128.757
G1 X82.091 Y127.425
G1 X81.655 Y126.955
G1 X80.415 Y125.484
G1 X79.943 Y124.854
G1 X79.072 Y123.543
G1 X78.600 Y122.711
G1 X75.603 Y116.452
G1 X75.171 Y115.241
G1 X75.061 Y114.751
G1 X74.903 Y113.762
G1 X74.783 Y112.234
G1 X74.711 Y109.496
G1 X74.288 Y85.331
G1 X74.323 Y79.635
G1 X74.381 Y76.938
G1 X74.475 Y75.219
G1 X74.602 Y74.130
G1 X74.717 Y73.430
G1 X74.857 Y72.798
G1 X75.067 Y72.028
G1 X75.457 Y70.954
G1 X75.791 Y70.276
G1 X76.077 Y69.759
G1 X76.945 Y68.530
G1 X77.063 Y68.397
G1 0.00000 F2400.00000
G1 X92.126 Y121.071 F7800.000
G1 2.00000 F2400.00000
G1 X91.656 Y121.199 F1800.000
G1 X91.304 Y120.263
G1 X91.065 Y119.090
G1 X90.999 Y118.357
G1 X90.980 Y117.527
G1 X91.066 Y115.969
G1 X91.281 Y114.781
G1 X91.623 Y113.728
G1 X92.180 Y112.593
G1 X92.996 Y111.387
G1 X93.732 Y110.505
G1 X94.579 Y109.619
G1 X94.789 Y109.451
G1 X95.965 Y109.848
G1 X94.850 Y111.269
G1 X94.156 Y112.203
G1 X93.626 Y112.813
G1 X93.236 Y113.503
G1 X92.578 Y115.042
G1 X92.110 Y116.550
G1 X91.874 Y118.140
G1 X91.891 Y119.713
G1 X92.114 Y120.998
G1 X96.642 Y109.155 F7800.000
G1 X96.283 Y108.859 F1800.000
G1 X96.915 Y107.827
G1 X97.361 Y107.480
G1 X98.028 Y107.040
G1 X98.420 Y106.837
G1 X98.768 Y106.774
G1 X98.945 Y107.143
G1 X97.189 Y108.654
G1 X96.698 Y109.104
G1 X95.337 Y108.694 F7800.000
G1 X96.238 Y107.222 F1800.000
G1 X96.840 Y106.754
G1 X97.576 Y106.269
G1 X98.128 Y105.983
G1 X98.430 Y105.928
G1 X99.346 Y105.549
G1 X100.672 Y104.898
G1 X103.542 Y103.355
G1 X103.892 Y103.149
G1 X104.180 Y103.531
G1 X101.478 Y106.089
G1 X99.750 Y107.628
G1 X97.782 Y109.322
G1 X97.305 Y109.758
G1 X96.459 Y110.665
G1 X95.559 Y111.811
G1 X94.852 Y112.762
G1 X94.359 Y113.330
G1 X94.037 Y113.899
G1 X93.417 Y115.350
G1 X92.983 Y116.749
G1 X92.767 Y118.201
G1 X92.783 Y119.631
G1 X93.022 Y121.014
G1 X93.323 Y121.964
G1 X94.143 Y123.867
G1 X93.537 Y124.768
G1 X93.191 Y124.505
G1 X92.135 Y123.490
G1 X91.392 Y122.549
G1 X90.861 Y121.621
G1 X90.443 Y120.510
G1 X90.181 Y119.219
G1 X90.107 Y118.407
G1 X90.087 Y117.513
G1 X90.178 Y115.865
G1 X90.414 Y114.563
G1 X90.793 Y113.392
G1 X91.406 Y112.144
G1 X92.282 Y110.849
G1 X93.066 Y109.910
G1 X93.975 Y108.959
G1 X94.613 Y108.450
G1 X95.266 Y108.670
G1 X94.948 Y107.621 F7800.000
G1 X95.407 Y106.869 F1800.000
G1 X95.363 Y106.826
G1 X95.598 Y106.589
G1 X96.320 Y106.028
G1 X97.124 Y105.498
G1 X97.790 Y105.153
G1 X98.176 Y105.067
G1 X98.978 Y104.735
G1 X100.264 Y104.104
G1 X103.103 Y102.578
G1 X104.927 Y101.500
G1 X105.669 Y100.974
G1 X106.219 Y100.418
G1 X106.752 Y99.735
G1 X107.174 Y99.044
G1 X107.511 Y98.092
G1 X107.940 Y98.147
G1 X107.981 Y98.636
G1 X107.877 Y99.595
G1 X107.558 Y100.573
G1 X106.976 Y101.618
G1 X106.027 Y102.852
G1 X104.708 Y104.260
G1 X102.082 Y106.746
G1 X100.338 Y108.300
G1 X98.374 Y109.990
G1 X97.934 Y110.393
G1 X97.138 Y111.246
G1 X96.269 Y112.353
G1 X95.549 Y113.322
G1 X95.092 Y113.848
G1 X94.838 Y114.296
G1 X94.256 Y115.659
G1 X93.856 Y116.948
G1 X93.661 Y118.262
G1 X93.675 Y119.549
G1 X93.892 Y120.802
G1 X94.161 Y121.652
G1 X94.987 Y123.570
G1 X95.109 Y124.031
G1 X94.576 Y124.822
G1 X95.717 Y124.837
G1 X95.874 Y124.910
G1 X96.208 Y125.136
G1 X98.363 Y126.975
G1 X99.594 Y127.744
G1 X100.261 Y128.041
G1 X100.133 Y128.488
G1 X99.349 Y128.381
G1 X98.374 Y128.187
G1 X97.011 Y127.781
G1 X96.531 Y127.591
G1 X96.278 Y127.447
G1 X96.060 Y127.271
G1 X95.848 Y127.165
G1 X95.485 Y127.119
G1 X95.428 Y127.147
G1 X95.170 Y127.025
G1 X94.203 Y126.394
G1 X92.610 Y125.185
G1 X91.472 Y124.091
G1 X90.650 Y123.050
G1 X90.050 Y122.002
G1 X89.583 Y120.758
G1 X89.296 Y119.349
G1 X89.215 Y118.458
G1 X89.194 Y117.498
G1 X89.290 Y115.760
G1 X89.546 Y114.345
G1 X89.963 Y113.056
G1 X90.632 Y111.695
G1 X91.568 Y110.312
G1 X92.400 Y109.315
G1 X93.371 Y108.299
G1 X94.180 Y107.653
G1 X94.507 Y107.472
G1 X94.877 Y107.597
G1 X95.392 Y107.849 F7800.000
G1 0.00000 F2400.00000
G1 X96.611 Y106.435 F7800.000
G1 X99.331 Y106.649 F7800.000
G1 X101.004 Y105.542 F7800.000
G1 X101.532 Y105.165 F7800.000
G1 X103.663 Y103.620 F7800.000
G1 X103.339 Y103.019 F7800.000
G1 X107.741 Y97.617 F7800.000
G1 2.00000 F2400.00000
G1 X107.721 Y96.881 F1800.000
G1 X107.696 Y96.593
G1 X107.558 Y95.646
G1 X107.381 Y94.929
G1 0.00000 F2400.00000
G1 X100.490 Y104.550 F7800.000
G1 X98.089 Y107.415 F7800.000
G1 X95.811 Y109.657 F7800.000
G1 X94.334 Y110.843 F7800.000
G1 X94.238 Y110.957 F7800.000
G1 X93.576 Y111.796 F7800.000
G1 X95.149 Y113.021 F7800.000
G1 X100.674 Y128.416 F7800.000
G1 2.00000 F2400.00000
G1 X102.647 Y128.820 F1800.000
G1 X103.778 Y129.019
G1 X98.771 Y127.786 F7800.000
G1 X98.020 Y127.462 F1800.000
G1 X97.633 Y127.252
G1 X97.633 Y127.252 F7800.000
G1 X96.896 Y126.830 F1800.000
G1 X96.492 Y126.518
G1 X96.189 Y126.317
G1 X95.651 Y126.064
G1 X95.431 Y125.910
G1 X94.054 Y125.491
G1 X93.308 Y123.665 F7800.000
G1 X92.781 Y122.904 F1800.000
G1 X92.409 Y122.278
G1 X92.029 Y121.561
G1 X91.458 Y117.712 F7800.000
G1 X91.583 Y116.422 F1800.000
G1 X91.652 Y116.038
G1 X91.921 Y114.942
G1 X92.270 Y113.990
G1 X92.625 Y113.215
G1 X92.772 Y112.936
G1 X93.098 Y112.413
G1 X94.238 Y110.957
G1 X95.054 Y110.012
G1 X99.232 Y106.710 F7800.000
G1 X99.743 Y106.390 F1800.000
G1 X101.115 Y105.467
G1 X101.112 Y105.463 F7800.000
G1 X102.546 Y104.427 F1800.000
G1 X104.381 Y103.056 F7800.000
G1 X105.351 Y102.278 F1800.000
G1 X106.232 Y101.436
G1 X106.224 Y101.428 F7800.000
G1 X106.686 Y100.843 F1800.000
G1 X107.021 Y100.338
G1 X107.366 Y99.637
G1 0.00000 F2400.00000
G1 X105.062 Y104.613 F7800.000
G1 X104.091 Y106.415 F7800.000
G1 X103.536 Y106.839 F7800.000
G1 X102.960 Y107.316 F7800.000
G1 X102.873 Y107.388 F7800.000
G1 X103.169 Y107.798 F7800.000
G1 X101.284 Y112.572 F7800.000
G1 2.00000 F2400.00000
G1 X102.750 Y111.212 F1800.000
G1 X104.573 Y109.607
G1 X104.393 Y110.859
G1 X104.402 Y111.403
G1 X104.500 Y112.005
G1 X104.964 Y113.267
G1 X105.555 Y114.143
G1 X106.242 Y114.767
G1 X107.015 Y115.180
G1 X107.793 Y115.377
G1 X108.510 Y115.399
G1 X109.177 Y115.292
G1 X109.787 Y115.083
G1 X110.356 Y114.788
G1 X111.223 Y114.160
G1 X110.877 Y115.888
G1 X110.362 Y115.948
G1 X108.860 Y116.455
G1 X107.909 Y116.626
G1 X107.049 Y116.644
G1 X106.233 Y116.531
G1 X105.318 Y116.242
G1 X104.398 Y115.769
G1 X103.449 Y115.074
G1 X102.451 Y114.093
G1 X101.889 Y113.415
G1 X101.328 Y112.633
G1 X108.964 Y105.166 F7800.000
G1 X109.379 Y104.652 F1800.000
G1 X110.026 Y103.725
G1 X110.808 Y102.375
G1 X111.136 Y101.346
G1 X111.792 Y102.640
G1 X112.348 Y104.021
G1 X112.965 Y105.841
G1 X111.996 Y105.434
G1 X110.661 Y105.157
G1 X109.039 Y105.166
G1 X106.334 Y107.149 F7800.000
G1 X106.199 Y106.898 F1800.000
G1 X106.761 Y106.259
G1 X107.912 Y105.049
G1 X108.665 Y104.116
G1 X109.272 Y103.245
G1 X109.987 Y102.011
G1 X110.362 Y100.838
G1 X110.485 Y99.756
G1 X110.494 Y99.314
G1 X110.875 Y99.206
G1 X111.692 Y100.468
G1 X112.606 Y102.271
G1 X113.185 Y103.711
G1 X113.758 Y105.402
G1 X114.412 Y107.444
G1 X114.078 Y107.669
G1 X113.742 Y107.387
G1 X112.839 Y106.756
G1 X111.730 Y106.291
G1 X110.572 Y106.050
G1 X109.444 Y106.056
G1 X108.774 Y106.199
G1 X108.165 Y106.454
G1 X107.427 Y106.965
G1 X106.769 Y107.640
G1 X106.092 Y108.603
G1 X105.685 Y109.533
G1 X105.628 Y109.901
G1 X105.544 Y109.999
G1 X105.345 Y110.516
G1 X105.287 Y110.916
G1 X105.294 Y111.324
G1 X105.367 Y111.777
G1 X105.765 Y112.857
G1 X106.235 Y113.555
G1 X106.760 Y114.032
G1 X107.340 Y114.342
G1 X107.918 Y114.488
G1 X108.453 Y114.504
G1 X108.960 Y114.423
G1 X109.435 Y114.260
G1 X109.886 Y114.026
G1 X110.413 Y113.645
G1 X110.962 Y113.105
G1 X111.587 Y112.268
G1 X111.990 Y111.564
G1 X112.157 Y111.207
G1 X112.616 Y111.634
G1 X111.952 Y115.100
G1 X111.590 Y116.845
G1 X110.981 Y116.774
G1 X110.559 Y116.824
G1 X109.082 Y117.322
G1 X107.998 Y117.517
G1 X106.997 Y117.538
G1 X106.036 Y117.405
G1 X104.977 Y117.071
G1 X103.927 Y116.531
G1 X102.869 Y115.755
G1 X101.793 Y114.698
G1 X101.182 Y113.961
G1 X100.114 Y112.440
G1 X102.151 Y110.550
G1 X104.035 Y108.892
G1 X104.563 Y108.516
G1 X105.005 Y108.702
G1 X106.286 Y107.206
G1 X110.723 Y104.278 F7800.000
G1 X113.276 Y106.203 F7800.000
G1 X114.879 Y108.503 F7800.000
G1 X115.062 Y108.717 F7800.000
G1 X115.067 Y108.721 F7800.000
G1 X115.201 Y108.788 F7800.000
G1 X115.341 Y108.842 F7800.000
G1 X116.662 Y108.643 F1800.000
G1 X116.691 Y109.203
G1 X116.131 Y109.745
G1 X115.390 Y108.899
G1 X115.500 Y107.915 F7800.000
G1 X116.426 Y107.775 F1800.000
G1 X116.463 Y104.014
G1 X116.446 Y101.924
G1 X116.424 Y101.398
G1 X116.320 Y100.666
G1 X116.228 Y100.391
G1 X116.106 Y100.167
G1 X115.833 Y99.939
G1 X115.557 Y99.878
G1 X115.468 Y99.791
G1 X115.313 Y99.580
G1 X115.197 Y99.367
G1 X115.094 Y99.118
G1 X114.762 Y98.017
G1 X115.307 Y98.172
G1 X116.313 Y98.576
G1 X116.507 Y98.726
G1 X116.599 Y98.839
G1 X116.761 Y99.172
G1 X116.931 Y99.869
G1 X117.036 Y100.597
G1 X117.181 Y102.231
G1 X117.440 Y106.406
G1 X117.604 Y109.563
G1 X116.030 Y111.085
G1 X115.614 Y110.510
G1 X114.339 Y109.053
G1 X113.198 Y108.097
G1 X112.405 Y107.542
G1 X111.464 Y107.147
G1 X110.482 Y106.943
G1 X109.541 Y106.949
G1 X109.042 Y107.055
G1 X108.596 Y107.241
G1 X108.007 Y107.649
G1 X107.458 Y108.212
G1 X106.874 Y109.043
G1 X106.549 Y109.785
G1 X106.493 Y110.147
G1 X106.503 Y110.250
G1 X106.322 Y110.462
G1 X106.214 Y110.743
G1 X106.181 Y110.973
G1 X106.185 Y111.245
G1 X106.235 Y111.549
G1 X106.565 Y112.447
G1 X106.915 Y112.967
G1 X107.279 Y113.297
G1 X107.664 Y113.503
G1 X108.043 Y113.598
G1 X108.395 Y113.610
G1 X108.743 Y113.553
G1 X109.083 Y113.437
G1 X109.417 Y113.264
G1 X109.835 Y112.961
G1 X110.288 Y112.516
G1 X110.840 Y111.777
G1 X111.197 Y111.153
G1 X111.825 Y109.808
G1 X112.134 Y110.001
G1 X112.771 Y110.558
G1 X113.586 Y111.317
G1 X112.827 Y115.275
G1 X112.153 Y118.526
G1 X111.628 Y117.924
G1 X111.412 Y117.777
G1 X111.200 Y117.698
G1 X110.982 Y117.673
G1 X110.756 Y117.700
G1 X109.305 Y118.189
G1 X108.087 Y118.408
G1 X106.944 Y118.432
G1 X105.839 Y118.279
G1 X104.637 Y117.900
G1 X103.456 Y117.293
G1 X102.290 Y116.437
G1 X101.134 Y115.303
G1 X100.475 Y114.507
G1 X99.828 Y113.605
G1 X98.944 Y112.307
G1 X101.552 Y109.888
G1 X103.480 Y108.191
G1 X104.451 Y107.500
G1 X104.750 Y107.626
G1 X105.258 Y107.033
G1 X105.146 Y106.824
G1 X105.344 Y106.519
G1 X106.102 Y105.656
G1 X107.240 Y104.460
G1 X107.950 Y103.579
G1 X108.518 Y102.765
G1 X109.166 Y101.647
G1 X109.485 Y100.650
G1 X109.593 Y99.696
G1 X109.620 Y98.469
G1 X109.547 Y96.890
G1 X109.496 Y96.600
G1 X109.878 Y96.430
G1 X111.410 Y98.390
G1 X112.467 Y100.023
G1 X113.419 Y101.902
G1 X114.023 Y103.401
G1 X114.606 Y105.122
G1 X115.477 Y107.844
G1 X115.601 Y108.405 F7800.000
G1 X111.877 Y104.563 F7800.000
G1 X111.466 Y104.152 F1800.000
G1 X111.428 Y103.433 F7800.000
G1 X111.013 Y103.018 F1800.000
G1 X110.402 Y103.966 F7800.000
G1 X110.024 Y104.559 F1800.000
G1 X110.020 Y104.641
G1 X110.706 Y104.710
G1 X103.853 Y111.646 F7800.000
G1 X103.440 Y111.233 F1800.000
G1 X102.711 Y111.891
G1 X104.420 Y113.601
G1 X104.048 Y114.617
G1 X102.669 Y113.239
G1 X104.600 Y114.693 F7800.000
G1 X105.697 Y115.449 F1800.000
G1 X106.408 Y115.755
G1 X106.945 Y115.929
G1 X106.949 Y115.916 F7800.000
G1 X107.725 Y116.002 F1800.000
G1 X108.556 Y115.950
G1 X109.303 Y115.777
G1 X110.533 Y115.347
G1 0.00000 F2400.00000
G1 X100.078 Y114.812 F7800.000
G1 X106.111 Y126.610 F7800.000
G1 X105.212 Y130.272 F7800.000
G1 X94.000 Y129.255 F7800.000
G1 X91.373 Y125.241 F7800.000
G1 X89.078 Y121.958 F7800.000
G1 X88.237 Y118.529 F7800.000
G1 X88.190 Y117.501 F7800.000
G1 X88.231 Y116.394 F7800.000
G1 X87.709 Y116.349 F7800.000
G1 X86.303 Y118.079 F7800.000
G1 2.00000 F2400.00000
G1 X86.371 Y118.692 F1800.000
G1 X85.929 Y118.812
G1 X85.757 Y118.429
G1 X85.860 Y118.045
G1 X86.229 Y118.073
G1 X86.238 Y112.454 F7800.000
G1 X85.747 Y112.340 F1800.000
G1 X85.909 Y111.373
G1 X86.238 Y110.378
G1 X86.769 Y109.243
G1 X87.660 Y107.764
G1 X88.438 Y106.763
G1 X88.735 Y106.486
G1 X88.880 Y106.466
G1 X89.821 Y106.007
G1 X90.088 Y106.351
G1 X89.478 Y107.065
G1 X88.230 Y108.598
G1 X87.152 Y110.339
G1 X86.309 Y112.212
G1 X86.259 Y112.382
G1 X86.294 Y117.539 F7800.000
G1 X85.801 Y117.570 F1800.000
G1 X85.702 Y116.883
G1 X84.941 Y116.503
G1 X84.832 Y115.896
G1 X84.751 Y114.853
G1 X84.747 Y113.670
G1 X84.841 Y112.340
G1 X85.040 Y111.158
G1 X85.407 Y110.048
G1 X85.980 Y108.823
G1 X86.922 Y107.258
G1 X87.777 Y106.159
G1 X88.333 Y105.640
G1 X88.618 Y105.601
G1 X89.252 Y105.291
G1 X89.757 Y104.642
G1 X89.787 Y104.484
G1 X90.712 Y103.952
G1 X92.018 Y103.337
G1 X93.627 Y102.678
G1 X96.219 Y101.762
G1 X99.649 Y100.758
G1 X99.830 Y101.217
G1 X98.953 Y101.650
G1 X97.257 Y102.329
G1 X96.415 Y102.780
G1 X93.187 Y104.783
G1 X92.525 Y105.111
G1 X92.358 Y105.136
G1 X91.681 Y105.390
G1 X91.061 Y106.277
G1 X91.100 Y106.539
G1 X90.164 Y107.637
G1 X88.958 Y109.117
G1 X87.942 Y110.759
G1 X87.148 Y112.524
G1 X86.603 Y114.361
G1 X86.318 Y116.231
G1 X86.295 Y117.464
G1 X84.885 Y117.473 F7800.000
G1 X84.402 Y117.232 F1800.000
G1 X84.256 Y117.286
G1 X84.102 Y116.881
G1 X83.946 Y116.010
G1 X83.859 Y114.890
G1 X83.854 Y113.640
G1 X83.954 Y112.234
G1 X84.171 Y110.943
G1 X84.576 Y109.717
G1 X85.191 Y108.403
G1 X86.185 Y106.752
G1 X87.116 Y105.555
G1 X87.763 Y104.951
G1 X87.997 Y104.806
G1 X88.085 Y104.772
G1 X88.355 Y104.736
G1 X88.675 Y104.580
G1 X88.920 Y104.264
G1 X88.965 Y104.030
G1 X89.068 Y103.916
G1 X89.336 Y103.714
G1 X90.299 Y103.160
G1 X91.659 Y102.520
G1 X93.309 Y101.844
G1 X95.945 Y100.911
G1 X98.678 Y100.118
G1 X101.133 Y99.378
G1 X102.730 Y98.707
G1 X103.905 Y98.004
G1 X104.740 Y97.266
G1 X105.322 Y96.473
G1 X105.459 Y96.160
G1 X105.872 Y96.230
G1 X105.922 Y96.900
G1 X105.832 Y97.593
G1 X105.610 Y98.163
G1 X105.333 Y98.603
G1 X104.948 Y99.079
G1 X104.401 Y99.557
G1 X103.185 Y100.376
G1 X100.878 Y101.695
G1 X99.317 Y102.465
G1 X97.635 Y103.140
G1 X96.862 Y103.554
G1 X93.622 Y105.564
G1 X92.795 Y105.973
G1 X92.583 Y106.005
G1 X92.254 Y106.128
G1 X91.997 Y106.497
G1 X92.032 Y106.735
G1 X91.760 Y107.142
G1 X90.849 Y108.209
G1 X89.687 Y109.636
G1 X88.732 Y111.179
G1 X87.987 Y112.835
